static/img/kroki/e5438881412ccfda73b9930150c575cb.svg

<?xml version="1.0" encoding="us-ascii" standalone="no"?><svg xmlns="http://www.w3.org/2000/svg" xmlns:xlink="http://www.w3.org/1999/xlink" contentStyleType="text/css" height="252px" preserveAspectRatio="none" style="width:446px;height:252px;" version="1.1" viewBox="0 0 446 252" width="446px" zoomAndPan="magnify"><defs/><g><!--class azure_network_subnet--><g id="elem_azure_network_subnet"><rect codeLine="23" fill="#3D176E" height="39.7891" id="azure_network_subnet" rx="2.5" ry="2.5" style="stroke:#000D19;stroke-width:0.5;" width="233" x="64" y="7"/><ellipse cx="79" cy="26.8945" fill="#ADD1B2" rx="11" ry="11" style="stroke:#181818;stroke-width:1.0;"/><path d="M81.9688,32.5352 Q81.3906,32.832 80.75,32.9727 Q80.1094,33.1289 79.4063,33.1289 Q76.9063,33.1289 75.5781,31.4883 Q74.2656,29.832 74.2656,26.707 Q74.2656,23.582 75.5781,21.9258 Q76.9063,20.2695 79.4063,20.2695 Q80.1094,20.2695 80.75,20.4258 Q81.4063,20.582 81.9688,20.8789 L81.9688,23.5977 Q81.3438,23.0195 80.75,22.7539 Q80.1563,22.4727 79.5313,22.4727 Q78.1875,22.4727 77.5,23.5508 Q76.8125,24.6133 76.8125,26.707 Q76.8125,28.8008 77.5,29.8789 Q78.1875,30.9414 79.5313,30.9414 Q80.1563,30.9414 80.75,30.6758 Q81.3438,30.3945 81.9688,29.8164 L81.9688,32.5352 Z " fill="#000000"/><text fill="#D9B8FF" font-family="Helvetica" font-size="17" lengthAdjust="spacing" textLength="191" x="98" y="32.7798">azure_network_subnet</text></g><!--class azure_sql_server_managed_instance--><g id="elem_azure_sql_server_managed_instance"><rect codeLine="26" fill="#3D176E" height="39.7891" id="azure_sql_server_managed_instance" rx="2.5" ry="2.5" style="stroke:#000D19;stroke-width:0.5;" width="347" x="7" y="206.58"/><ellipse cx="22" cy="226.4745" fill="#ADD1B2" rx="11" ry="11" style="stroke:#181818;stroke-width:1.0;"/><path d="M24.9688,232.1152 Q24.3906,232.412 23.75,232.5527 Q23.1094,232.7089 22.4063,232.7089 Q19.9063,232.7089 18.5781,231.0683 Q17.2656,229.412 17.2656,226.287 Q17.2656,223.162 18.5781,221.5058 Q19.9063,219.8495 22.4063,219.8495 Q23.1094,219.8495 23.75,220.0058 Q24.4063,220.162 24.9688,220.4589 L24.9688,223.1777 Q24.3438,222.5995 23.75,222.3339 Q23.1563,222.0527 22.5313,222.0527 Q21.1875,222.0527 20.5,223.1308 Q19.8125,224.1933 19.8125,226.287 Q19.8125,228.3808 20.5,229.4589 Q21.1875,230.5214 22.5313,230.5214 Q23.1563,230.5214 23.75,230.2558 Q24.3438,229.9745 24.9688,229.3964 L24.9688,232.1152 Z " fill="#000000"/><text fill="#D9B8FF" font-family="Helvetica" font-size="17" lengthAdjust="spacing" textLength="305" x="41" y="232.3598">azure_sql_server_managed_instance</text></g><!--class azure_sql_server_virtual_cluster--><g id="elem_azure_sql_server_virtual_cluster"><rect codeLine="29" fill="#3D176E" height="39.7891" id="azure_sql_server_virtual_cluster" rx="2.5" ry="2.5" style="stroke:#000D19;stroke-width:0.5;" width="310" x="129.5" y="106.79"/><ellipse cx="144.5" cy="126.6845" fill="#ADD1B2" rx="11" ry="11" style="stroke:#181818;stroke-width:1.0;"/><path d="M147.4688,132.3252 Q146.8906,132.622 146.25,132.7627 Q145.6094,132.9189 144.9063,132.9189 Q142.4063,132.9189 141.0781,131.2783 Q139.7656,129.622 139.7656,126.497 Q139.7656,123.372 141.0781,121.7158 Q142.4063,120.0595 144.9063,120.0595 Q145.6094,120.0595 146.25,120.2158 Q146.9063,120.372 147.4688,120.6689 L147.4688,123.3877 Q146.8438,122.8095 146.25,122.5439 Q145.6563,122.2627 145.0313,122.2627 Q143.6875,122.2627 143,123.3408 Q142.3125,124.4033 142.3125,126.497 Q142.3125,128.5908 143,129.6689 Q143.6875,130.7314 145.0313,130.7314 Q145.6563,130.7314 146.25,130.4658 Q146.8438,130.1845 147.4688,129.6064 L147.4688,132.3252 Z " fill="#000000"/><text fill="#D9B8FF" font-family="Helvetica" font-size="17" lengthAdjust="spacing" textLength="268" x="163.5" y="132.5698">azure_sql_server_virtual_cluster</text></g><!--link azure_network_subnet to azure_sql_server_managed_instance--><g id="link_azure_network_subnet_azure_sql_server_managed_instance"><path codeLine="32" d="M156.35,47.12 C140.25,61.58 120.46,82.94 111.5,106.79 C105.28,123.35 105.28,130.03 111.5,146.58 C120.46,170.43 135.7861,187.7808 151.8861,202.2408 " fill="none" id="azure_network_subnet-to-azure_sql_server_managed_instance" style="stroke:#1A83AF;stroke-width:2.0;"/><polygon fill="#1A83AF" points="156.35,206.25,152.3269,197.2603,152.6301,202.909,146.9814,203.2121,156.35,206.25" style="stroke:#1A83AF;stroke-width:2.0;"/></g><!--link azure_network_subnet to azure_sql_server_virtual_cluster--><g id="link_azure_network_subnet_azure_sql_server_virtual_cluster"><path codeLine="33" d="M201.05,47.22 C219.28,64.36 241.4098,85.1589 259.6298,102.2989 " fill="none" id="azure_network_subnet-to-azure_sql_server_virtual_cluster" style="stroke:#1A83AF;stroke-width:2.0;"/><polygon fill="#1A83AF" points="264,106.41,260.1855,97.3298,260.3582,102.984,254.704,103.1567,264,106.41" style="stroke:#1A83AF;stroke-width:2.0;"/></g><!--link azure_sql_server_virtual_cluster to azure_sql_server_managed_instance--><g id="link_azure_sql_server_virtual_cluster_azure_sql_server_managed_instance"><path codeLine="34" d="M263.95,147.01 C245.72,164.15 223.5902,184.9489 205.3702,202.0889 " fill="none" id="azure_sql_server_virtual_cluster-to-azure_sql_server_managed_instance" style="stroke:#1A83AF;stroke-width:2.0;"/><polygon fill="#1A83AF" points="201,206.2,210.296,202.9467,204.6418,202.774,204.8145,197.1198,201,206.2" style="stroke:#1A83AF;stroke-width:2.0;"/></g><!--SRC=[dP31Ji9048RlVOfDE9DG6mKk9fM4w8KOyMPCC-rEOTFjBivE8M1yTwceMLgWqTjc_o_pVpDB9L5WkUAjAB5CaLpW2cLMG52AcCXk9bPR4hqyXpmQDiEfDTm9pA14SOzwZQmoQ1BFIvKL1fqJLrvq1rcn85iPUHZF1CRj8pJiKHCDpiNCfDAAqPEHutIKvqsoERGNoN1uWotCaaJwHWQ3WGp7JQIpwkBUlyHSxL24_j5cbh6bsQhueYvQreGdsLhq9p_h-0XIAhCGrzxVqy693DBH_tm9qcvgEWVj_1h7I6Xvky99QoiSZsG-F0a_d8E3h3wTW5r5c1ZaZQKYSLMwVuht8FWuojsRJXpI6YafmS02PQACOp0PNeJNYhW2dMIwgfKExCdA_ailZ4THF7tjttQN_cT6moNebFsZqYS0]--></g></svg>

<svg xmlns="http://www.w3.org/2000/svg" width="446" height="252" viewBox="0 0 446 252"><rect width="233" height="39.789" x="64" y="7" fill="#3D176E" rx="2.5" ry="2.5" style="stroke:#000d19;stroke-width:.5"/><circle cx="79" cy="26.895" r="11" fill="#ADD1B2" style="stroke:#181818;stroke-width:1"/><path d="M81.969 32.535q-.578.297-1.219.438-.64.156-1.344.156-2.5 0-3.828-1.64-1.312-1.657-1.312-4.782t1.312-4.781q1.328-1.656 3.828-1.656.703 0 1.344.156.656.156 1.219.453v2.719q-.625-.578-1.219-.844-.594-.281-1.219-.281-1.344 0-2.031 1.078-.687 1.062-.687 3.156t.687 3.172q.688 1.062 2.031 1.062.625 0 1.219-.265.594-.281 1.219-.86z"/><text x="98" y="32.78" fill="#D9B8FF" font-family="Helvetica" font-size="17" textLength="191">azure_network_subnet</text><rect width="347" height="39.789" x="7" y="206.58" fill="#3D176E" rx="2.5" ry="2.5" style="stroke:#000d19;stroke-width:.5"/><circle cx="22" cy="226.475" r="11" fill="#ADD1B2" style="stroke:#181818;stroke-width:1"/><path d="M24.969 232.115q-.578.297-1.219.438-.64.156-1.344.156-2.5 0-3.828-1.64-1.312-1.657-1.312-4.782t1.312-4.781q1.328-1.656 3.828-1.656.703 0 1.344.156.656.156 1.219.453v2.719q-.625-.578-1.219-.844-.594-.281-1.219-.281-1.343 0-2.031 1.078-.687 1.062-.687 3.156t.687 3.172q.688 1.062 2.031 1.062.625 0 1.219-.265.594-.281 1.219-.86z"/><text x="41" y="232.36" fill="#D9B8FF" font-family="Helvetica" font-size="17" textLength="305">azure_sql_server_managed_instance</text><rect width="310" height="39.789" x="129.5" y="106.79" fill="#3D176E" rx="2.5" ry="2.5" style="stroke:#000d19;stroke-width:.5"/><circle cx="144.5" cy="126.684" r="11" fill="#ADD1B2" style="stroke:#181818;stroke-width:1"/><path d="M147.469 132.325q-.578.297-1.219.438-.64.156-1.344.156-2.5 0-3.828-1.64-1.312-1.657-1.312-4.782t1.312-4.781q1.328-1.656 3.828-1.656.703 0 1.344.156.656.156 1.219.453v2.719q-.625-.579-1.219-.844-.594-.281-1.219-.281-1.344 0-2.031 1.078-.687 1.062-.687 3.156t.687 3.172q.688 1.062 2.031 1.062.625 0 1.219-.265.594-.281 1.219-.86z"/><text x="163.5" y="132.57" fill="#D9B8FF" font-family="Helvetica" font-size="17" textLength="268">azure_sql_server_virtual_cluster</text><path fill="none" d="M156.35 47.12c-16.1 14.46-35.89 35.82-44.85 59.67-6.22 16.56-6.22 23.24 0 39.79 8.96 23.85 24.286 41.2 40.386 55.66" style="stroke:#1a83af;stroke-width:2"/><path fill="#1A83AF" d="m156.35 206.25-4.023-8.99.303 5.649-5.649.303z" style="stroke:#1a83af;stroke-width:2"/><path fill="none" d="M201.05 47.22c18.23 17.14 40.36 37.939 58.58 55.079" style="stroke:#1a83af;stroke-width:2"/><path fill="#1A83AF" d="m264 106.41-3.815-9.08.173 5.654-5.654.173z" style="stroke:#1a83af;stroke-width:2"/><path fill="none" d="M263.95 147.01c-18.23 17.14-40.36 37.939-58.58 55.079" style="stroke:#1a83af;stroke-width:2"/><path fill="#1A83AF" d="m201 206.2 9.296-3.253-5.654-.173.173-5.654z" style="stroke:#1a83af;stroke-width:2"/></svg>
